public/images/logos/centauro.svg

<?xml version="1.0" encoding="UTF-8"?><svg id="a" xmlns="http://www.w3.org/2000/svg" viewBox="0 0 241.56 80"><defs><style>.b{stroke-width:0px;}</style></defs><path class="b" d="m21.46,36.92c-5.77,5.98-1.21,10.87,10.12,11.04l-1.09,1.94c-14.49-.16-20.63-5.74-13.7-12.56,5.05-4.99,16.66-10.22,26.98-11.68l-.91,1.65c-8.49,1.59-17.17,5.23-21.41,9.6Z"/><path class="b" d="m15.33,37.3c-7.44,7.33-.93,13.37,14.64,13.56l-1.53,2.74h-1.65c-17.75,0-24.54-7.85-16.27-16.39,6.61-6.88,21.58-12.59,34.18-13.3l-.71,1.3c-11.37,1.39-23.21,6.73-28.65,12.08Z"/><path class="b" d="m4.17,37.27c7.91-8.03,25.6-14.19,41.37-14.77l-.56.94c-13.58.69-28.82,6.45-35.77,13.64-8.7,8.95-1.65,17.4,17.01,17.4h1.72l-1.63,2.89c-5.32.4-10.67-.12-15.81-1.56-11.05-3.42-13.71-11.08-6.33-18.54"/><path class="b" d="m34.54,49.82c-1.03,0-2.14.08-2.9.1l1.03-1.94h2.61l-.74,1.85Z"/><path class="b" d="m31.92,56.9c-1.3.13-2.92.27-4.02.36l1.44-2.78c.95,0,2.42-.12,3.56-.21l-.98,2.62Z"/><path class="b" d="m33.24,53.39c-.93,0-2.09.12-3.43.17l1.38-2.71c1.14,0,2.19-.07,3.04-.12l-.99,2.66Z"/><path class="b" d="m94.3,56.56h-7.66c-2.86,0-4.83-.72-5.94-2.14s-1.4-3.54-.81-6.39l3.44-16.23c.72-3.41,1.86-5.66,3.31-6.85s3.94-1.72,7.25-1.72h6.62l-.82,3.77h-4.83c-1.17-.1-2.33.24-3.26.95-.85.93-1.37,2.11-1.5,3.36l-.64,2.9h7.98l-.82,4.46h-8.03l-1.81,8.56c-.41,1.99-.41,3.39.1,4.26s1.58,1.21,3.21,1.21h5.04l-.82,3.85Z"/><path class="b" d="m117.15,56.56h-6.68l5.63-26.38c.24-.77.12-1.6-.33-2.27-.64-.61-1.53-.9-2.42-.77h-1.21l-6.16,29.42h-6.7l7.07-33.33h11.15c1.72-.17,3.42.49,4.58,1.78,1,1.44,1.28,3.26.77,4.94l-5.7,26.62Z"/><path class="b" d="m146.33,26.99h-6.35l-6.26,29.57h-6.7l6.26-29.57h-6.21l.77-3.77h19.25l-.76,3.77Z"/><path class="b" d="m161.7,56.56h-6.76l3.82-17.91h-5.3l-3.8,17.91h-6.72l5.22-24.58c.44-2.62,1.79-5.01,3.8-6.74,2.17-1.63,4.83-2.46,7.54-2.36,3.22,0,5.44.72,6.65,2.17,1.21,1.5,1.41,3.77.77,6.93l-5.22,24.57Zm-1.99-22.36l.77-3.62c.33-.96.33-1.99,0-2.95-.37-.63-1.09-.98-1.81-.87-.86-.05-1.7.26-2.31.87-.66.86-1.08,1.87-1.21,2.95l-.77,3.62h5.33Z"/><path class="b" d="m188.62,47.36c-.44,2.8-1.79,5.38-3.83,7.34-2.1,1.69-4.74,2.54-7.43,2.42-3,0-5.07-.81-6.34-2.49s-1.5-4.03-.82-7.25l5.12-24.16h6.72l-5.07,24.01c-.37,1.25-.47,2.56-.31,3.85.18.77.77,1.14,1.76,1.14.42.02.84-.07,1.21-.27.37-.19.69-.47.92-.82.73-1.19,1.21-2.52,1.41-3.9l5.07-23.97h6.7l-5.11,24.1Z"/><path class="b" d="m240.24,39.99c-1.46,6.75-3.22,11.3-5.35,13.64-2.07,2.28-5.03,3.55-8.1,3.49-3.26,0-5.47-1.21-6.65-3.5s-1.03-6.88.4-13.64c1.43-6.75,3.26-11.39,5.35-13.71,1.05-1.11,2.32-1.98,3.72-2.57,1.41-.58,2.92-.86,4.44-.82,3.31,0,5.57,1.03,6.75,3.08s.99,6.75-.54,14.01v.02Zm-6.94,0c.7-3.05,1.21-6.14,1.55-9.25.23-2.14-.41-3.22-1.81-3.22s-2.42,1.09-3.21,3.26c-.99,3.02-1.79,6.1-2.42,9.22-.74,3.16-1.26,6.36-1.55,9.59-.08,1.94.54,2.86,1.9,2.86s2.42-1.03,3.18-3.22c.96-3.03,1.75-6.11,2.37-9.23"/><path class="b" d="m74.54,56.56h-7.71c-2.81,0-4.83-.72-5.94-2.14s-1.4-3.54-.76-6.39l3.44-16.23c.72-3.41,1.81-5.66,3.31-6.85s3.89-1.72,7.25-1.72h6.57l-.82,3.77h-4.83c-1.15-.1-2.3.24-3.21.95-.84.94-1.38,2.11-1.55,3.36l-.63,2.9-.82,4.46-1.86,8.56c-.43,1.39-.4,2.89.08,4.26.46.86,1.59,1.21,3.27,1.21h4.98l-.77,3.85Z"/><path class="b" d="m210.32,32.16c.41-1.35.49-2.78.23-4.17-.28-.72-1.01-1.09-2.17-1.09h-1.78l-2.17,10.27h1.94c.47.02.94-.07,1.36-.28.42-.19.8-.48,1.09-.85.77-1.18,1.28-2.51,1.5-3.9h0Zm-1.86,11.58c.21-.65.09-1.36-.31-1.91-.46-.48-1.11-.73-1.78-.69h-2.8l-3.26,15.41h-6.72l7.08-33.33h10.24c2.8,0,4.71.64,5.71,1.96s1.21,3.21.68,5.85c-.3,1.78-1.06,3.45-2.22,4.83-1.07,1.24-2.49,2.14-4.07,2.58,1.32.06,2.55.71,3.35,1.76.67,1.08.86,2.4.51,3.62l-2.72,12.66h-6.4l2.72-12.74Z"/></svg>

<?xml version="1.0" encoding="UTF-8" standalone="no"?>
<svg id="a" viewBox="0 0 32 32" version="1.1" sodipodi:docname="centauro.svg" width="32" height="32" inkscape:version="1.4-beta2 (9aaf4f34, 2024-07-30)" xmlns:inkscape="http://www.inkscape.org/namespaces/inkscape" xmlns:sodipodi="http://sodipodi.sourceforge.net/DTD/sodipodi-0.dtd" xmlns="http://www.w3.org/2000/svg" xmlns:svg="http://www.w3.org/2000/svg">
  <sodipodi:namedview id="namedview14" pagecolor="#ffffff" bordercolor="#000000" borderopacity="0.25" inkscape:showpageshadow="2" inkscape:pageopacity="0.0" inkscape:pagecheckerboard="0" inkscape:deskcolor="#d1d1d1" inkscape:zoom="2.035888" inkscape:cx="30.944728" inkscape:cy="42.487603" inkscape:window-width="1440" inkscape:window-height="790" inkscape:window-x="0" inkscape:window-y="0" inkscape:window-maximized="1" inkscape:current-layer="a" />
  <defs id="defs1">
    <style id="style1">.b{stroke-width:0px;}</style>
  </defs>
  <g id="g14" transform="matrix(0.7029194,0,0,0.7029194,-0.01094959,-12.116929)">
    <path class="b" d="M 21.46,36.92 C 15.69,42.9 20.25,47.79 31.58,47.96 L 30.49,49.9 C 16,49.74 9.86,44.16 16.79,37.34 21.84,32.35 33.45,27.12 43.77,25.66 l -0.91,1.65 c -8.49,1.59 -17.17,5.23 -21.41,9.6 z" id="path1" />
    <path class="b" d="M 15.33,37.3 C 7.89,44.63 14.4,50.67 29.97,50.86 L 28.44,53.6 H 26.79 C 9.04,53.6 2.25,45.75 10.52,37.21 17.13,30.33 32.1,24.62 44.7,23.91 l -0.71,1.3 C 32.62,26.6 20.78,31.94 15.34,37.29 Z" id="path2" />
    <path class="b" d="M 4.17,37.27 C 12.08,29.24 29.77,23.08 45.54,22.5 l -0.56,0.94 C 31.4,24.13 16.16,29.89 9.21,37.08 c -8.7,8.95 -1.65,17.4 17.01,17.4 h 1.72 l -1.63,2.89 C 20.99,57.77 15.64,57.25 10.5,55.81 -0.55,52.39 -3.21,44.73 4.17,37.27" id="path3" />
    <path class="b" d="m 34.54,49.82 c -1.03,0 -2.14,0.08 -2.9,0.1 l 1.03,-1.94 h 2.61 l -0.74,1.85 z" id="path4" />
    <path class="b" d="m 31.92,56.9 c -1.3,0.13 -2.92,0.27 -4.02,0.36 l 1.44,-2.78 c 0.95,0 2.42,-0.12 3.56,-0.21 l -0.98,2.62 z" id="path5" />
    <path class="b" d="m 33.24,53.39 c -0.93,0 -2.09,0.12 -3.43,0.17 l 1.38,-2.71 c 1.14,0 2.19,-0.07 3.04,-0.12 z" id="path6" />
  </g>
</svg>
